SVG_Azure_Grouped/Application/LiveData Plane.svg

<?xml version="1.0" encoding="UTF-8" standalone="no"?>
<!-- Generated by Microsoft Visio, SVG Export LiveData Plane.svg Page-1 -->

<svg
   xmlns:dc="http://purl.org/dc/elements/1.1/"
   xmlns:cc="http://creativecommons.org/ns#"
   xmlns:rdf="http://www.w3.org/1999/02/22-rdf-syntax-ns#"
   xmlns:svg="http://www.w3.org/2000/svg"
   xmlns="http://www.w3.org/2000/svg"
   xmlns:sodipodi="http://sodipodi.sourceforge.net/DTD/sodipodi-0.dtd"
   xmlns:inkscape="http://www.inkscape.org/namespaces/inkscape"
   width="0.7873624in"
   height="0.62986213in"
   viewBox="0 0 56.689997 45.349924"
   xml:space="preserve"
   class="st3"
   version="1.1"
   id="svg32"
   sodipodi:docname="LiveData Plane.svg"
   style="font-size:12px;overflow:visible;color-interpolation-filters:sRGB;fill:none;fill-rule:evenodd;stroke-linecap:square;stroke-miterlimit:3"
   inkscape:version="0.92.5 (2060ec1f9f, 2020-04-08)"><metadata
   id="metadata38"><rdf:RDF><cc:Work
       rdf:about=""><dc:format>image/svg+xml</dc:format><dc:type
         rdf:resource="http://purl.org/dc/dcmitype/StillImage" /></cc:Work></rdf:RDF></metadata><defs
   id="defs36" /><sodipodi:namedview
   pagecolor="#ffffff"
   bordercolor="#666666"
   borderopacity="1"
   objecttolerance="10"
   gridtolerance="10"
   guidetolerance="10"
   inkscape:pageopacity="0"
   inkscape:pageshadow="2"
   inkscape:window-width="640"
   inkscape:window-height="480"
   id="namedview34"
   showgrid="false"
   inkscape:zoom="1.9213984"
   inkscape:cx="37.795331"
   inkscape:cy="16.059028"
   inkscape:window-x="0"
   inkscape:window-y="0"
   inkscape:window-maximized="0"
   inkscape:current-layer="svg32" />
	<style
   type="text/css"
   id="style2">
	<![CDATA[
		.st1 {fill:#ea7600;stroke:none;stroke-linecap:butt;stroke-width:12.75}
		.st2 {fill:#757676;stroke:none;stroke-linecap:butt;stroke-width:12.75}
		.st3 {fill:none;fill-rule:evenodd;font-size:12px;overflow:visible;stroke-linecap:square;stroke-miterlimit:3}
	]]>
	</style>

	<g
   id="g30"
   transform="translate(-12.75,-12.754378)">
		<title
   id="title4">Page-1</title>
		<g
   id="group13851-1"
   transform="translate(12.75,-34.0157)">
			<title
   id="title6">LiveData Plane.13851</title>
			<g
   id="group13852-2">
				<title
   id="title8">Sheet.13852</title>
				<g
   id="group13853-3"
   transform="translate(5.7424,-11.7019)">
					<title
   id="title10">Sheet.13853</title>
					<g
   id="shape13854-4"
   transform="translate(30.1246)">
						<title
   id="title12">Sheet.13854</title>
						<path
   d="M 3.59,70.44 0,74.16 5.27,79.58 7.02,81.28 5.27,82.98 0,88.4 3.59,92.12 14.28,81.28 Z"
   class="st1"
   id="path14"
   inkscape:connector-curvature="0"
   style="fill:#ea7600;stroke:none;stroke-width:12.75;stroke-linecap:butt" />
					</g>
					<g
   id="shape13855-6"
   transform="translate(0,-0.0815872)">
						<title
   id="title17">Sheet.13855</title>
						<path
   d="M 33.23,81.39 22.35,70.65 16.61,76.32 10.88,70.66 0,81.39 l 10.88,10.73 5.74,-5.66 5.74,5.66 z"
   class="st1"
   id="path19"
   inkscape:connector-curvature="0"
   style="fill:#ea7600;stroke:none;stroke-width:12.75;stroke-linecap:butt" />
					</g>
				</g>
				<g
   id="shape13856-8">
					<title
   id="title23">Sheet.13856</title>
					<path
   d="M 8.01,46.77 0,54.74 v 29.41 l 8.01,7.97 3.2,-4.07 -6.98,-6.96 V 57.4 l 6.98,-6.96 z m 40.68,0 8,7.97 v 29.41 l -8,7.97 -3.21,-4.07 6.99,-6.96 V 57.4 l -6.99,-6.96 z"
   class="st2"
   id="path25"
   inkscape:connector-curvature="0"
   style="fill:#757676;stroke:none;stroke-width:12.75;stroke-linecap:butt" />
				</g>
			</g>
		</g>
	</g>
</svg>

<?xml version="1.0" encoding="UTF-8" standalone="no"?>
<!DOCTYPE svg PUBLIC "-//W3C//DTD SVG 1.1//EN" "http://www.w3.org/Graphics/SVG/1.1/DTD/svg11.dtd">
<!-- Generated by Microsoft Visio, SVG Export LiveData Plane.svg Page-1 -->
<svg xmlns="http://www.w3.org/2000/svg" xmlns:xlink="http://www.w3.org/1999/xlink" xmlns:ev="http://www.w3.org/2001/xml-events"
		width="1.14157in" height="1.27945in" viewBox="0 0 82.1929 92.1201" xml:space="preserve" color-interpolation-filters="sRGB"
		class="st3">
	<style type="text/css">
	<![CDATA[
		.st1 {fill:#ea7600;stroke:none;stroke-linecap:butt;stroke-width:12.75}
		.st2 {fill:#757676;stroke:none;stroke-linecap:butt;stroke-width:12.75}
		.st3 {fill:none;fill-rule:evenodd;font-size:12px;overflow:visible;stroke-linecap:square;stroke-miterlimit:3}
	]]>
	</style>

	<g>
		<title>Page-1</title>
		<g id="group13504-1" transform="translate(12.75,-34.0157)">
			<title>LiveData Plane.13504</title>
			<g id="group13505-2">
				<title>Sheet.13505</title>
				<g id="group13506-3" transform="translate(5.7424,-11.7019)">
					<title>Sheet.13506</title>
					<g id="shape13507-4" transform="translate(30.1246,0)">
						<title>Sheet.13507</title>
						<path d="M3.59 70.44 L0 74.16 L5.27 79.58 L7.02 81.28 L5.27 82.98 L0 88.4 L3.59 92.12 L14.28 81.28 L3.59
									 70.44 Z" class="st1"/>
					</g>
					<g id="shape13508-6" transform="translate(0,-0.0815872)">
						<title>Sheet.13508</title>
						<path d="M33.23 81.39 L22.35 70.65 L16.61 76.32 L10.88 70.66 L0 81.39 L10.88 92.12 L16.62 86.46 L22.36 92.12
									 L33.23 81.39 Z" class="st1"/>
					</g>
				</g>
				<g id="shape13509-8">
					<title>Sheet.13509</title>
					<path d="M8.01 46.77 L0 54.74 L0 84.15 L8.01 92.12 L11.21 88.05 L4.23 81.09 L4.23 57.4 L11.21 50.44 L8.01 46.77
								 ZM48.69 46.77 L56.69 54.74 L56.69 84.15 L48.69 92.12 L45.48 88.05 L52.47 81.09 L52.47 57.4 L45.48
								 50.44 L48.69 46.77 Z" class="st2"/>
				</g>
			</g>
		</g>
	</g>
</svg>
